X: 2
T: Lucy Campbell's
R: reel
M: 4/4
L: 1/8
K: Dmaj
dB|AD(3DDD D2 dB|ADFA BE~E2|ADFA dfec|dBAF AD~D2|
AD(3DDD AD BD|ADFA BE~E2|ADFA dfec|dBAF AD~D2||
dBAB defe|d2cA BE~E2|dBAB defe|dBAF AD~D2|
dBAB defe|dB~B2 gB~B2|dBAB defe|dBAF AD~D2||
faaf defg|a2fa b~e3|faaf defe|dBAF AD~D2|
faaf defg|a2fa b~e3|~g3e ~f3e|dBAF AD~D2||
|:df~f2 dfef|df~f2 afef|1 dffe ~f3e|dBAF AD~D2:|2 ~g3e ~f3e|dBAF AD~D2||


Tune 1552	Setting 28377

